X: 847
T: The Rakes of Kildare
B:O'Neill's 847
Z:Transcribed by Dan G. Petersen, dangp@post6.tele.dk
M:6/8
L:1/8
K:G
D|D2G {A}GFG|ABc d2e|=fef ded|cAG F3|
DGG {A}GFG|ABc d2e|=fed cA^F|G3 G2:|
d|{a}gfg def|gfg a2g|=fef ded|cAG F2d|
{a}gfg def|gfg a2g|=fed cA^F|G3 G2:|


